public/img/moods/shy.svg

<?xml version="1.0" encoding="UTF-8" standalone="no"?>
<!-- Generator: Adobe Illustrator 16.0.0, SVG Export Plug-In . SVG Version: 6.00 Build 0)  -->
<!DOCTYPE svg  PUBLIC '-//W3C//DTD SVG 1.1//EN'  'http://www.w3.org/Graphics/SVG/1.1/DTD/svg11.dtd'>
<svg id="Capa_1" style="enable-background:new 0 0 478.2 478.2" xmlns="http://www.w3.org/2000/svg" xml:space="preserve" height="512px" viewBox="0 0 478.2 478.2" width="512px" version="1.1" y="0px" x="0px" xmlns:xlink="http://www.w3.org/1999/xlink">
	<path d="m239.1 325.1c57.4 0 86.101-19.1 86.101-19.1s-19.1 57.4-86.1 57.4c-67 0-86.1-57.4-86.1-57.4s28.7 19.1 86.1 19.1zm-42.1-137.7l-53.6-53.5-53.5 53.5 13.4 13.4 40.1-40.2 40.2 40.2 13.4-13.4zm281.2 51.7c0 132-107.1 239.1-239.1 239.1s-239.1-107.1-239.1-239.1 107.1-239.1 239.1-239.1c131.9 0 239.1 107.1 239.1 239.1zm-19.2 0c0-122.4-97.5-219.9-219.9-219.9s-219.9 97.5-219.9 219.9 97.5 219.9 219.9 219.9 219.9-97.5 219.9-219.9zm-177.9-51.7l13.4 13.4 40.2-40.2 40.2 40.2 13.3-13.4-53.5-53.5-53.6 53.5z" fill="#eda868"/>
</svg>

<?xml version="1.0" encoding="iso-8859-1"?>
<!-- Generator: Adobe Illustrator 16.0.0, SVG Export Plug-In . SVG Version: 6.00 Build 0)  -->
<!DOCTYPE svg PUBLIC "-//W3C//DTD SVG 1.1//EN" "http://www.w3.org/Graphics/SVG/1.1/DTD/svg11.dtd">
<svg xmlns="http://www.w3.org/2000/svg" xmlns:xlink="http://www.w3.org/1999/xlink" version="1.1" id="Capa_1" x="0px" y="0px" width="512px" height="512px" viewBox="0 0 478.2 478.2" style="enable-background:new 0 0 478.2 478.2;" xml:space="preserve">
<g>
	<path d="M239.1,325.1c57.4,0,86.101-19.1,86.101-19.1S306.1,363.4,239.1,363.4c-67,0-86.1-57.4-86.1-57.4S181.7,325.1,239.1,325.1z    M197,187.4l-53.6-53.5l-53.5,53.5l13.4,13.4l40.1-40.2l40.2,40.2L197,187.4z M478.2,239.1C478.2,371.1,371.1,478.2,239.1,478.2   C107.1,478.2,0,371.1,0,239.1C0,107.1,107.1,0,239.1,0C371,0,478.2,107.1,478.2,239.1z M459,239.1C459,116.7,361.5,19.2,239.1,19.2   C116.7,19.2,19.2,116.7,19.2,239.1C19.2,361.5,116.7,459,239.1,459C361.5,459,459,361.5,459,239.1z M281.1,187.4l13.4,13.4   l40.2-40.2l40.2,40.2l13.3-13.4l-53.5-53.5L281.1,187.4z" fill="#eda868"/>
</g>
<g>
</g>
<g>
</g>
<g>
</g>
<g>
</g>
<g>
</g>
<g>
</g>
<g>
</g>
<g>
</g>
<g>
</g>
<g>
</g>
<g>
</g>
<g>
</g>
<g>
</g>
<g>
</g>
<g>
</g>
</svg>
